images/5311064.svg

<?xml version="1.0" encoding="UTF-8"?>
<svg xmlns="http://www.w3.org/2000/svg" xmlns:xlink="http://www.w3.org/1999/xlink" width="300pt" height="300pt" viewBox="0 0 300 300" version="1.1">
<defs>
<g>
<symbol overflow="visible" id="glyph0-0">
<path style="stroke:none;" d="M 0.453125 1.59375 L 0.453125 -6.34375 L 4.953125 -6.34375 L 4.953125 1.59375 Z M 0.953125 1.09375 L 4.453125 1.09375 L 4.453125 -5.84375 L 0.953125 -5.84375 Z M 0.953125 1.09375 "/>
</symbol>
<symbol overflow="visible" id="glyph0-1">
<path style="stroke:none;" d="M 3.546875 -5.953125 C 2.898438 -5.953125 2.382812 -5.710938 2 -5.234375 C 1.625 -4.753906 1.4375 -4.101562 1.4375 -3.28125 C 1.4375 -2.445312 1.625 -1.789062 2 -1.3125 C 2.382812 -0.832031 2.898438 -0.59375 3.546875 -0.59375 C 4.191406 -0.59375 4.703125 -0.832031 5.078125 -1.3125 C 5.453125 -1.789062 5.640625 -2.445312 5.640625 -3.28125 C 5.640625 -4.101562 5.453125 -4.753906 5.078125 -5.234375 C 4.703125 -5.710938 4.191406 -5.953125 3.546875 -5.953125 Z M 3.546875 -6.6875 C 4.460938 -6.6875 5.195312 -6.375 5.75 -5.75 C 6.300781 -5.132812 6.578125 -4.3125 6.578125 -3.28125 C 6.578125 -2.238281 6.300781 -1.410156 5.75 -0.796875 C 5.195312 -0.179688 4.460938 0.125 3.546875 0.125 C 2.617188 0.125 1.878906 -0.179688 1.328125 -0.796875 C 0.773438 -1.410156 0.5 -2.238281 0.5 -3.28125 C 0.5 -4.3125 0.773438 -5.132812 1.328125 -5.75 C 1.878906 -6.375 2.617188 -6.6875 3.546875 -6.6875 Z M 3.546875 -6.6875 "/>
</symbol>
<symbol overflow="visible" id="glyph0-2">
<path style="stroke:none;" d="M 0.890625 -6.5625 L 2.078125 -6.5625 L 4.984375 -1.078125 L 4.984375 -6.5625 L 5.84375 -6.5625 L 5.84375 0 L 4.65625 0 L 1.75 -5.484375 L 1.75 0 L 0.890625 0 Z M 0.890625 -6.5625 "/>
</symbol>
<symbol overflow="visible" id="glyph0-3">
<path style="stroke:none;" d="M 0.890625 -6.5625 L 1.765625 -6.5625 L 1.765625 -3.875 L 5 -3.875 L 5 -6.5625 L 5.890625 -6.5625 L 5.890625 0 L 5 0 L 5 -3.125 L 1.765625 -3.125 L 1.765625 0 L 0.890625 0 Z M 0.890625 -6.5625 "/>
</symbol>
</g>
</defs>
<g id="surface45709">
<rect x="0" y="0" width="300" height="300" style="fill:rgb(100%,100%,100%);fill-opacity:1;stroke:none;"/>
<path style="fill:none;stroke-width:1.2;stroke-linecap:butt;stroke-linejoin:miter;stroke:rgb(0%,0%,0%);stroke-opacity:1;stroke-miterlimit:10;" d="M 35.25 171.9375 L 44.160156 176.875 "/>
<path style="fill:none;stroke-width:1.2;stroke-linecap:butt;stroke-linejoin:miter;stroke:rgb(100%,0%,0%);stroke-opacity:1;stroke-miterlimit:10;" d="M 44.160156 176.875 L 53.070312 181.808594 "/>
<path style="fill:none;stroke-width:1.2;stroke-linecap:butt;stroke-linejoin:miter;stroke:rgb(100%,0%,0%);stroke-opacity:1;stroke-miterlimit:10;" d="M 53.070312 181.808594 L 61.800781 176.558594 "/>
<path style="fill:none;stroke-width:1.2;stroke-linecap:butt;stroke-linejoin:miter;stroke:rgb(0%,0%,0%);stroke-opacity:1;stroke-miterlimit:10;" d="M 61.800781 176.558594 L 70.53125 171.3125 "/>
<path style=" stroke:none;fill-rule:nonzero;fill:rgb(100%,100%,100%);fill-opacity:1;" d="M 49.070312 176.308594 L 57.070312 176.308594 L 57.070312 187.308594 L 49.070312 187.308594 Z M 49.070312 176.308594 "/>
<g style="fill:rgb(100%,0%,0%);fill-opacity:1;">
  <use xlink:href="#glyph0-1" x="49.070312" y="184.97168"/>
</g>
<path style="fill:none;stroke-width:1.2;stroke-linecap:butt;stroke-linejoin:miter;stroke:rgb(0%,0%,0%);stroke-opacity:1;stroke-miterlimit:10;" d="M 70.53125 171.3125 L 70.167969 150.941406 "/>
<path style="fill:none;stroke-width:1.2;stroke-linecap:butt;stroke-linejoin:miter;stroke:rgb(0%,0%,0%);stroke-opacity:1;stroke-miterlimit:10;" d="M 75.285156 169.1875 L 74.996094 152.894531 "/>
<path style="fill:none;stroke-width:1.2;stroke-linecap:butt;stroke-linejoin:miter;stroke:rgb(0%,0%,0%);stroke-opacity:1;stroke-miterlimit:10;" d="M 88.351562 181.179688 L 70.53125 171.3125 "/>
<path style="fill:none;stroke-width:1.2;stroke-linecap:butt;stroke-linejoin:miter;stroke:rgb(0%,0%,0%);stroke-opacity:1;stroke-miterlimit:10;" d="M 70.167969 150.941406 L 87.625 140.445312 "/>
<path style="fill:none;stroke-width:1.2;stroke-linecap:butt;stroke-linejoin:miter;stroke:rgb(0%,0%,0%);stroke-opacity:1;stroke-miterlimit:10;" d="M 70.167969 150.941406 L 61.257812 146.007812 "/>
<path style="fill:none;stroke-width:1.2;stroke-linecap:butt;stroke-linejoin:miter;stroke:rgb(100%,0%,0%);stroke-opacity:1;stroke-miterlimit:10;" d="M 61.257812 146.007812 L 52.347656 141.070312 "/>
<path style="fill:none;stroke-width:1.2;stroke-linecap:butt;stroke-linejoin:miter;stroke:rgb(0%,0%,0%);stroke-opacity:1;stroke-miterlimit:10;" d="M 87.625 140.445312 L 105.445312 150.3125 "/>
<path style="fill:none;stroke-width:1.2;stroke-linecap:butt;stroke-linejoin:miter;stroke:rgb(0%,0%,0%);stroke-opacity:1;stroke-miterlimit:10;" d="M 87.085938 145.625 L 101.34375 153.519531 "/>
<path style="fill:none;stroke-width:1.2;stroke-linecap:butt;stroke-linejoin:miter;stroke:rgb(0%,0%,0%);stroke-opacity:1;stroke-miterlimit:10;" d="M 105.445312 150.3125 L 105.808594 170.683594 "/>
<path style="fill:none;stroke-width:1.2;stroke-linecap:butt;stroke-linejoin:miter;stroke:rgb(0%,0%,0%);stroke-opacity:1;stroke-miterlimit:10;" d="M 105.445312 150.3125 L 122.90625 139.816406 "/>
<path style="fill:none;stroke-width:1.2;stroke-linecap:butt;stroke-linejoin:miter;stroke:rgb(0%,0%,0%);stroke-opacity:1;stroke-miterlimit:10;" d="M 105.808594 170.683594 L 88.351562 181.179688 "/>
<path style="fill:none;stroke-width:1.2;stroke-linecap:butt;stroke-linejoin:miter;stroke:rgb(0%,0%,0%);stroke-opacity:1;stroke-miterlimit:10;" d="M 101.59375 167.625 L 87.625 176.023438 "/>
<path style="fill:none;stroke-width:1.2;stroke-linecap:butt;stroke-linejoin:miter;stroke:rgb(0%,0%,0%);stroke-opacity:1;stroke-miterlimit:10;" d="M 122.90625 139.816406 L 140.726562 149.6875 "/>
<path style="fill:none;stroke-width:1.2;stroke-linecap:butt;stroke-linejoin:miter;stroke:rgb(0%,0%,0%);stroke-opacity:1;stroke-miterlimit:10;" d="M 140.726562 149.6875 L 149.457031 144.4375 "/>
<path style="fill:none;stroke-width:1.2;stroke-linecap:butt;stroke-linejoin:miter;stroke:rgb(0%,0%,100%);stroke-opacity:1;stroke-miterlimit:10;" d="M 149.457031 144.4375 L 158.183594 139.1875 "/>
<path style="fill:none;stroke-width:1.2;stroke-linecap:butt;stroke-linejoin:miter;stroke:rgb(0%,0%,100%);stroke-opacity:1;stroke-miterlimit:10;" d="M 158.183594 139.1875 L 167.097656 144.121094 "/>
<path style="fill:none;stroke-width:1.2;stroke-linecap:butt;stroke-linejoin:miter;stroke:rgb(0%,0%,0%);stroke-opacity:1;stroke-miterlimit:10;" d="M 167.097656 144.121094 L 176.007812 149.058594 "/>
<path style=" stroke:none;fill-rule:nonzero;fill:rgb(100%,100%,100%);fill-opacity:1;" d="M 151.183594 133.6875 L 165.183594 133.6875 L 165.183594 144.6875 L 151.183594 144.6875 Z M 151.183594 133.6875 "/>
<g style="fill:rgb(0%,0%,100%);fill-opacity:1;">
  <use xlink:href="#glyph0-2" x="151.183594" y="142.350586"/>
  <use xlink:href="#glyph0-3" x="158.161133" y="142.350586"/>
</g>
<path style="fill:none;stroke-width:1;stroke-linecap:butt;stroke-linejoin:miter;stroke:rgb(0%,0%,0%);stroke-opacity:1;stroke-miterlimit:10;" d="M 193.464844 138.558594 L 193.464844 138.558594 M 190.664062 139.636719 L 191.203125 140.527344 M 187.863281 140.710938 L 188.9375 142.496094 M 185.0625 141.785156 L 186.675781 144.46875 M 182.261719 142.863281 L 184.414062 146.4375 M 179.460938 143.9375 L 182.148438 148.40625 M 176.660156 145.011719 L 179.886719 150.375 M 174.152344 145.976562 L 177.859375 152.136719 "/>
<path style="fill:none;stroke-width:1.2;stroke-linecap:butt;stroke-linejoin:miter;stroke:rgb(0%,0%,0%);stroke-opacity:1;stroke-miterlimit:10;" d="M 193.464844 138.558594 L 211.285156 148.429688 "/>
<path style="fill:none;stroke-width:1.2;stroke-linecap:butt;stroke-linejoin:miter;stroke:rgb(0%,0%,0%);stroke-opacity:1;stroke-miterlimit:10;" d="M 193.464844 138.558594 L 193.285156 128.375 "/>
<path style="fill:none;stroke-width:1.2;stroke-linecap:butt;stroke-linejoin:miter;stroke:rgb(100%,0%,0%);stroke-opacity:1;stroke-miterlimit:10;" d="M 193.285156 128.375 L 193.101562 118.191406 "/>
<path style="fill:none;stroke-width:1.2;stroke-linecap:butt;stroke-linejoin:miter;stroke:rgb(0%,0%,0%);stroke-opacity:1;stroke-miterlimit:10;" d="M 211.285156 148.429688 L 211.648438 168.796875 "/>
<path style="fill:none;stroke-width:1.2;stroke-linecap:butt;stroke-linejoin:miter;stroke:rgb(0%,0%,0%);stroke-opacity:1;stroke-miterlimit:10;" d="M 216.113281 150.382812 L 216.40625 166.675781 "/>
<path style="fill:none;stroke-width:1.2;stroke-linecap:butt;stroke-linejoin:miter;stroke:rgb(0%,0%,0%);stroke-opacity:1;stroke-miterlimit:10;" d="M 228.746094 137.929688 L 211.285156 148.429688 "/>
<path style="fill:none;stroke-width:1.2;stroke-linecap:butt;stroke-linejoin:miter;stroke:rgb(0%,0%,0%);stroke-opacity:1;stroke-miterlimit:10;" d="M 211.648438 168.796875 L 229.46875 178.667969 "/>
<path style="fill:none;stroke-width:1.2;stroke-linecap:butt;stroke-linejoin:miter;stroke:rgb(0%,0%,0%);stroke-opacity:1;stroke-miterlimit:10;" d="M 229.46875 178.667969 L 246.929688 168.171875 "/>
<path style="fill:none;stroke-width:1.2;stroke-linecap:butt;stroke-linejoin:miter;stroke:rgb(0%,0%,0%);stroke-opacity:1;stroke-miterlimit:10;" d="M 228.746094 173.511719 L 242.710938 165.113281 "/>
<path style="fill:none;stroke-width:1.2;stroke-linecap:butt;stroke-linejoin:miter;stroke:rgb(0%,0%,0%);stroke-opacity:1;stroke-miterlimit:10;" d="M 246.929688 168.171875 L 246.566406 147.800781 "/>
<path style="fill:none;stroke-width:1.2;stroke-linecap:butt;stroke-linejoin:miter;stroke:rgb(0%,0%,0%);stroke-opacity:1;stroke-miterlimit:10;" d="M 246.929688 168.171875 L 255.839844 173.105469 "/>
<path style="fill:none;stroke-width:1.2;stroke-linecap:butt;stroke-linejoin:miter;stroke:rgb(100%,0%,0%);stroke-opacity:1;stroke-miterlimit:10;" d="M 255.839844 173.105469 L 264.75 178.039062 "/>
<path style="fill:none;stroke-width:1.2;stroke-linecap:butt;stroke-linejoin:miter;stroke:rgb(0%,0%,0%);stroke-opacity:1;stroke-miterlimit:10;" d="M 246.566406 147.800781 L 228.746094 137.929688 "/>
<path style="fill:none;stroke-width:1.2;stroke-linecap:butt;stroke-linejoin:miter;stroke:rgb(0%,0%,0%);stroke-opacity:1;stroke-miterlimit:10;" d="M 242.460938 151.007812 L 228.203125 143.109375 "/>
<path style=" stroke:none;fill-rule:nonzero;fill:rgb(100%,100%,100%);fill-opacity:1;" d="M 257.75 172.539062 L 272.75 172.539062 L 272.75 183.539062 L 257.75 183.539062 Z M 257.75 172.539062 "/>
<g style="fill:rgb(100%,0%,0%);fill-opacity:1;">
  <use xlink:href="#glyph0-1" x="257.75" y="181.202148"/>
  <use xlink:href="#glyph0-3" x="265.091797" y="181.202148"/>
</g>
<path style=" stroke:none;fill-rule:nonzero;fill:rgb(100%,100%,100%);fill-opacity:1;" d="M 186.101562 112.691406 L 201.101562 112.691406 L 201.101562 123.691406 L 186.101562 123.691406 Z M 186.101562 112.691406 "/>
<g style="fill:rgb(100%,0%,0%);fill-opacity:1;">
  <use xlink:href="#glyph0-1" x="186.101562" y="121.354492"/>
  <use xlink:href="#glyph0-3" x="193.443359" y="121.354492"/>
</g>
<path style="fill:none;stroke-width:1.2;stroke-linecap:butt;stroke-linejoin:miter;stroke:rgb(100%,0%,0%);stroke-opacity:1;stroke-miterlimit:10;" d="M 52.347656 141.070312 L 52.164062 130.886719 "/>
<path style="fill:none;stroke-width:1.2;stroke-linecap:butt;stroke-linejoin:miter;stroke:rgb(0%,0%,0%);stroke-opacity:1;stroke-miterlimit:10;" d="M 52.164062 130.886719 L 51.984375 120.703125 "/>
<path style=" stroke:none;fill-rule:nonzero;fill:rgb(100%,100%,100%);fill-opacity:1;" d="M 48.347656 135.570312 L 56.347656 135.570312 L 56.347656 146.570312 L 48.347656 146.570312 Z M 48.347656 135.570312 "/>
<g style="fill:rgb(100%,0%,0%);fill-opacity:1;">
  <use xlink:href="#glyph0-1" x="48.347656" y="144.233398"/>
</g>
</g>
</svg>

<svg xmlns="http://www.w3.org/2000/svg" xmlns:xlink="http://www.w3.org/1999/xlink" width="300pt" height="300pt" viewBox="0 0 300 300"><defs><symbol overflow="visible"><path d="M.453 1.594v-7.938h4.5v7.938zm.5-.5h3.5v-6.938h-3.5zm0 0"/></symbol><symbol overflow="visible" id="a"><path d="M3.547-5.953c-.65 0-1.164.242-1.547.72-.375.48-.563 1.13-.563 1.952 0 .835.188 1.49.563 1.967.383.48.898.72 1.547.72.644 0 1.156-.24 1.53-.72.376-.476.564-1.132.564-1.968 0-.822-.187-1.474-.562-1.954-.375-.477-.887-.72-1.53-.72zm0-.734c.914 0 1.648.312 2.203.937.55.617.828 1.438.828 2.47 0 1.042-.277 1.87-.828 2.483-.555.617-1.29.922-2.203.922-.93 0-1.668-.305-2.22-.922C.774-1.41.5-2.237.5-3.28c0-1.033.273-1.853.828-2.47.55-.625 1.29-.938 2.22-.938zm0 0"/></symbol><symbol overflow="visible" id="b"><path d="M.89-6.563H2.08l2.906 5.485v-5.484h.86V0H4.656L1.75-5.484V0H.89zm0 0"/></symbol><symbol overflow="visible" id="c"><path d="M.89-6.563h.876v2.688H5v-2.688h.89V0H5v-3.125H1.766V0H.89zm0 0"/></symbol></defs><g><path fill="#fff" d="M0 0h300v300H0z"/><path d="M35.25 171.938l8.91 4.937" stroke-width="1.2" stroke="#000" stroke-miterlimit="10" fill="none"/><path d="M44.16 176.875l8.91 4.934M53.07 181.81l8.73-5.25" stroke-width="1.2" stroke="#f00" stroke-miterlimit="10" fill="none"/><path d="M61.8 176.56l8.73-5.248" stroke-width="1.2" stroke="#000" stroke-miterlimit="10" fill="none"/><path d="M49.07 176.31h8v11h-8zm0 0" fill="#fff"/><use xlink:href="#a" x="49.07" y="184.972" fill="#f00"/><path d="M70.53 171.313l-.362-20.372M75.285 169.188l-.29-16.293M88.352 181.18l-17.82-9.868M70.168 150.94l17.457-10.495M70.168 150.94l-8.91-4.932" stroke-width="1.2" stroke="#000" stroke-miterlimit="10" fill="none"/><path d="M61.258 146.008l-8.91-4.938" stroke-width="1.2" stroke="#f00" stroke-miterlimit="10" fill="none"/><path d="M87.625 140.445l17.82 9.868M87.086 145.625l14.258 7.895M105.445 150.313l.364 20.37M105.445 150.313l17.46-10.497M105.81 170.684L88.35 181.18M101.594 167.625l-13.97 8.398M122.906 139.816l17.82 9.87M140.727 149.688l8.73-5.25" stroke-width="1.2" stroke="#000" stroke-miterlimit="10" fill="none"/><path d="M149.457 144.438l8.727-5.25M158.184 139.188l8.914 4.933" stroke-width="1.2" stroke="#00f" stroke-miterlimit="10" fill="none"/><path d="M167.098 144.12l8.91 4.94" stroke-width="1.2" stroke="#000" stroke-miterlimit="10" fill="none"/><path d="M151.184 133.688h14v11h-14zm0 0" fill="#fff"/><g fill="#00f"><use xlink:href="#b" x="151.184" y="142.351"/><use xlink:href="#c" x="158.161" y="142.351"/></g><path d="M193.465 138.56m-2.8 1.077l.538.89m-3.34.184l1.075 1.786m-3.875-.71l1.613 2.683m-4.414-1.607l2.152 3.575m-4.953-2.5l2.688 4.468m-5.488-3.394l3.227 5.363m-5.735-4.398l3.707 6.16" stroke="#000" stroke-miterlimit="10" fill="none"/><path d="M193.465 138.56l17.82 9.87M193.465 138.56l-.18-10.185" stroke-width="1.2" stroke="#000" stroke-miterlimit="10" fill="none"/><path d="M193.285 128.375l-.183-10.184" stroke-width="1.2" stroke="#f00" stroke-miterlimit="10" fill="none"/><path d="M211.285 148.43l.363 20.367M216.113 150.383l.293 16.293M228.746 137.93l-17.46 10.5M211.648 168.797l17.82 9.87M229.47 178.668l17.46-10.496M228.746 173.512l13.965-8.4M246.93 168.172l-.364-20.37M246.93 168.172l8.91 4.933" stroke-width="1.2" stroke="#000" stroke-miterlimit="10" fill="none"/><path d="M255.84 173.105l8.91 4.934" stroke-width="1.2" stroke="#f00" stroke-miterlimit="10" fill="none"/><path d="M246.566 147.8l-17.82-9.87M242.46 151.008l-14.257-7.9" stroke-width="1.2" stroke="#000" stroke-miterlimit="10" fill="none"/><path d="M257.75 172.54h15v11h-15zm0 0" fill="#fff"/><g fill="#f00"><use xlink:href="#a" x="257.75" y="181.202"/><use xlink:href="#c" x="265.092" y="181.202"/></g><path d="M186.102 112.69h15v11h-15zm0 0" fill="#fff"/><g fill="#f00"><use xlink:href="#a" x="186.102" y="121.354"/><use xlink:href="#c" x="193.443" y="121.354"/></g><path d="M52.348 141.07l-.184-10.183" stroke-width="1.2" stroke="#f00" stroke-miterlimit="10" fill="none"/><path d="M52.164 130.887l-.18-10.184" stroke-width="1.2" stroke="#000" stroke-miterlimit="10" fill="none"/><path d="M48.348 135.57h8v11h-8zm0 0" fill="#fff"/><use xlink:href="#a" x="48.348" y="144.233" fill="#f00"/></g></svg>
